X:10
T:Var det, var det du
R:vals
A:H\"alsingland
Z:id:hn-vals-10
M:3/4
L:1/8
K:Am
A3^G AB | c3 BA^G | A2 B2 ^GB | A4 c2 | e3^d e^f | g3 ^fe^d | e2 ^f2 ^df | e6 :|
|: c3 dcB | c2 e2 g^f | d3 ed^c | d2 ^f2 ag | e3 dcB | c3 BA^G | A2 B2 ^GB | A6:|
